X: 15
T:West Fork Gals
% Nottingham Music Database
S:Old Time, via PR
M:4/4
L:1/4
K:D
d/2e/2|:"D"f3/2e/2 de/2f/2|"G"g/2f/2g Bf|"A7"e3/2d/2 cA|"D"d/2B/2A/2G/2 F/2E/2D\
|
f3/2e/2 de/2f/2|"G"gg B2|"A7"e3/2d/2 cA-|"A7"A/2B/2c/2A/2 d2::
"D"A3/2G/2 F3/2G/2|Ad F3/2F/2|"A7"G/2C/2F E[EA]|G/2C/2F E2|
e/2f/2e/2d/2 c/2A/2B/2c/2|"D"dA FA|"D"df "A7"e/2f/2G/2e/2|"D"f/2A/2c dz:|


